icons/lines/sms-star.svg

<svg xmlns="http://www.w3.org/2000/svg" width="24" height="24" viewBox="0 0 24 24" fill="none" stroke="currentColor" stroke-width="2" stroke-linecap="round" stroke-linejoin="round" >
  <path d="M22 11.5V15.5C22 19 20 20.5 17 20.5H7C4 20.5 2 19 2 15.5V8.5C2 5 4 3.5 7 3.5H12" stroke-miterlimit="10"/>
  <path d="M7 9L10.13 11.5C11.16 12.32 12.85 12.32 13.88 11.5" stroke-miterlimit="10"/>
  <path d="M19.4802 2.82L19.7602 3.38999C19.9002 3.66999 20.2502 3.93 20.5602 3.99L20.9402 4.05C22.0802 4.24 22.3502 5.08 21.5302 5.91L21.1802 6.25999C20.9502 6.49999 20.8202 6.95999 20.8902 7.27999L20.9402 7.49C21.2502 8.87 20.5202 9.39999 19.3202 8.67999L19.0602 8.52999C18.7502 8.34999 18.2502 8.34999 17.9402 8.52999L17.6802 8.67999C16.4702 9.40999 15.7402 8.87 16.0602 7.49L16.1102 7.27999C16.1802 6.95999 16.0502 6.49999 15.8202 6.25999L15.4702 5.91C14.6502 5.08 14.9202 4.24 16.0602 4.05L16.4402 3.99C16.7402 3.94 17.1002 3.66999 17.2402 3.38999L17.5202 2.82C18.0602 1.73 18.9402 1.73 19.4802 2.82Z"/>
  </svg>

<svg xmlns="http://www.w3.org/2000/svg" width="24" height="24" viewBox="0 0 24 24" fill="none" stroke="currentColor" stroke-width="2" stroke-linecap="round" stroke-linejoin="round">
  <path d="M19.76 3.39a1.25 1.25 0 0 0 .8.6l.38.06c1.14.19 1.41 1.03.59 1.86l-.35.35c-.23.24-.36.7-.29 1.02l.05.21c.31 1.38-.42 1.91-1.62 1.19l-.26-.15c-.31-.18-.81-.18-1.12 0l-.26.15c-1.21.73-1.94.19-1.62-1.19l.05-.21c.07-.32-.06-.78-.29-1.02l-.35-.35c-.82-.83-.55-1.67.59-1.86l.38-.06c.3-.05.66-.32.8-.6l.28-.57c.54-1.09 1.42-1.09 1.96 0z" />
  <path d="M22 11.5v4c0 3.5-2 5-5 5H7c-3 0-5-1.5-5-5v-7c0-3.5 2-5 5-5h5" />
  <path d="m7 9 3.13 2.5c1.03.82 2.72.82 3.75 0" />
</svg>
